src/assets/images/icons/gdge.svg

<svg fill="none" viewBox="0 0 24 24" xmlns="http://www.w3.org/2000/svg"><g fill="#fff"><path d="m1.44489 10.7653c-.762617 1.0949-.520595 2.6203.54056 3.4071l5.05431 3.7479c1.06115.7869 2.53955.5372 3.30214-.5577.7626-1.0949.5206-2.6203-.54053-3.4072l-5.05431-3.7478c-1.06115-.78689-2.53955-.53718-3.30217.5577z"/><path d="m13.6583 7.01677c-.7626 1.09489-.5206 2.62027.5405 3.40713l5.0543 3.7479c1.0612.7868 2.5396.5371 3.3022-.5578.7626-1.0948.5206-2.6202-.5406-3.4071l-5.0543-3.74787c-1.0611-.78686-2.5395-.53714-3.3021.55774z"/><path d="m18.9551 14.5732c.5365.3979 1.1604.574 1.7724.5528l-3.7675 2.7939c-1.0612.7869-2.5402.5373-3.3028-.5576-.7623-1.0949-.52-2.6204.541-3.4072l1.961-1.4551zm2.7617-3.9648c.8402.6232 1.0383 1.8431.4277 2.7197-.6042.8674-1.7631 1.058-2.5937.4424l-2.5518-1.8926 2.253-1.6699c.3968-.29422.8524-.44364 1.3066-.458z"/><path d="m1.85596 11.0508c.60432-.8672 1.76316-1.05811 2.59375-.4424l2.55078 1.8916-2.25293 1.6719c-.39657.294-.85169.4425-1.30567.457l-1.1582-.8584c-.84035-.6232-1.03839-1.843-.42773-2.7197zm5.18359-4.59182c1.06115-.78685 2.54011-.53725 3.30275.55762.7626 1.09489.5201 2.62037-.54103 3.4072l-1.96094 1.4541-2.79492-2.07224c-.5367-.39795-1.16108-.5741-1.77344-.55273z"/></g></svg>

<svg viewBox="0 0 24 24" fill="none" xmlns="http://www.w3.org/2000/svg">
<title>Google Developer Expert</title>
<path d="M1.44489 10.7653C0.682273 11.8602 0.924295 13.3856 1.98545 14.1724L7.03976 17.9203C8.10091 18.7072 9.57931 18.4575 10.3419 17.3626C11.1045 16.2677 10.8625 14.7423 9.80137 13.9554L4.74706 10.2076C3.68591 9.42071 2.20751 9.67042 1.44489 10.7653Z" fill="white"/>
<path d="M13.6583 7.01677C12.8957 8.11166 13.1377 9.63704 14.1988 10.4239L19.2531 14.1718C20.3143 14.9586 21.7927 14.7089 22.5553 13.614C23.3179 12.5192 23.0759 10.9938 22.0147 10.2069L16.9604 6.45903C15.8993 5.67217 14.4209 5.92189 13.6583 7.01677Z" fill="white"/>
<path d="M18.9551 14.5732C19.4916 14.9711 20.1155 15.1472 20.7275 15.126L16.96 17.9199C15.8988 18.7068 14.4198 18.4572 13.6572 17.3623C12.8949 16.2674 13.1372 14.7419 14.1982 13.9551L16.1592 12.5L18.9551 14.5732ZM21.7168 10.6084C22.557 11.2316 22.7551 12.4515 22.1445 13.3281C21.5403 14.1955 20.3814 14.3861 19.5508 13.7705L16.999 11.8779L19.252 10.208C19.6488 9.91378 20.1044 9.76436 20.5586 9.75L21.7168 10.6084Z" fill="white"/>
<path d="M1.85596 11.0508C2.46028 10.1836 3.61912 9.99269 4.44971 10.6084L7.00049 12.5L4.74756 14.1719C4.35099 14.4659 3.89587 14.6144 3.44189 14.6289L2.28369 13.7705C1.44334 13.1473 1.2453 11.9275 1.85596 11.0508ZM7.03955 6.45898C8.1007 5.67213 9.57966 5.92173 10.3423 7.0166C11.1049 8.11149 10.8624 9.63697 9.80127 10.4238L7.84033 11.8779L5.04541 9.80566C4.50871 9.40771 3.88433 9.23156 3.27197 9.25293L7.03955 6.45898Z" fill="white"/>
</svg>
